HOP0019/Consideration_SuperSmart_18/300x250/copy5.svg

<svg width="240" height="49" viewBox="0 0 240 49" fill="none" xmlns="http://www.w3.org/2000/svg">
<path d="M10.668 20.448C9.268 20.448 7.97067 20.2053 6.776 19.72C5.6 19.2347 4.57333 18.5533 3.696 17.676C2.83733 16.78 2.16533 15.7347 1.68 14.54C1.19467 13.3453 0.952 12.0387 0.952 10.62C0.952 9.20133 1.19467 7.89467 1.68 6.7C2.16533 5.50533 2.83733 4.46933 3.696 3.592C4.57333 2.71467 5.6 2.03333 6.776 1.548C7.97067 1.06267 9.268 0.819998 10.668 0.819998C12.068 0.819998 13.356 1.06267 14.532 1.548C15.7267 2.03333 16.7627 2.71467 17.64 3.592C18.5173 4.46933 19.1893 5.50533 19.656 6.7C20.1413 7.89467 20.384 9.20133 20.384 10.62C20.384 12.0387 20.1413 13.3453 19.656 14.54C19.1893 15.7347 18.5173 16.78 17.64 17.676C16.7627 18.5533 15.7267 19.2347 14.532 19.72C13.356 20.2053 12.068 20.448 10.668 20.448ZM10.668 15.8C11.6573 15.8 12.488 15.5667 13.16 15.1C13.8507 14.6333 14.3733 14.008 14.728 13.224C15.0827 12.44 15.26 11.572 15.26 10.62C15.26 9.668 15.0827 8.8 14.728 8.016C14.3733 7.232 13.8507 6.60667 13.16 6.14C12.488 5.67333 11.6573 5.44 10.668 5.44C9.69733 5.44 8.86667 5.67333 8.176 6.14C7.504 6.60667 6.98133 7.232 6.608 8.016C6.25333 8.8 6.076 9.668 6.076 10.62C6.076 11.572 6.25333 12.44 6.608 13.224C6.98133 14.008 7.504 14.6333 8.176 15.1C8.86667 15.5667 9.69733 15.8 10.668 15.8ZM22.7281 20V1.324H27.2361L34.4041 11.74V1.324H39.3041V20H35.0761L27.6281 9.276V20H22.7281ZM42.3817 20V1.324H47.3377V15.632H55.9897V20H42.3817ZM57.9611 20V1.324H62.9171V20H57.9611ZM65.9936 20V1.324H70.5016L77.6696 11.74V1.324H82.5696V20H78.3416L70.8936 9.276V20H65.9936ZM85.6472 20V1.324H99.0872V5.608H90.6032V8.492H97.5752V12.524H90.6032V15.716H99.6752V20H85.6472ZM106.743 20V1.324H111.699V15.632H120.351V20H106.743ZM122.323 20V1.324H135.763V5.608H127.279V8.492H134.251V12.524H127.279V15.716H136.351V20H122.323ZM137.072 20L143.932 1.324H149.616L156.224 20H150.876L149.672 16.136H143.428L142.196 20H137.072ZM144.436 12.524H148.664L146.592 5.664L144.436 12.524ZM157.747 20V1.324H165.475C167.473 1.324 169.078 1.84667 170.291 2.892C171.505 3.91867 172.111 5.44 172.111 7.456C172.111 8.66933 171.841 9.73333 171.299 10.648C170.758 11.5627 170.039 12.2907 169.143 12.832L173.147 20H167.827L164.663 13.644H162.591V20H157.747ZM162.591 9.752H164.999C165.653 9.752 166.185 9.556 166.595 9.164C167.006 8.75333 167.211 8.212 167.211 7.54C167.211 6.83067 167.015 6.27067 166.623 5.86C166.231 5.44933 165.681 5.244 164.971 5.244H162.591V9.752ZM175.049 20V1.324H179.557L186.725 11.74V1.324H191.625V20H187.397L179.949 9.276V20H175.049ZM194.703 20V1.324H199.659V20H194.703ZM202.735 20V1.324H207.243L214.411 11.74V1.324H219.311V20H215.083L207.635 9.276V20H202.735ZM231.909 13.168V9.332H239.581V17.76C238.461 18.712 237.173 19.4027 235.717 19.832C234.261 20.2427 232.814 20.448 231.377 20.448C229.361 20.448 227.625 20.0467 226.169 19.244C224.713 18.4413 223.593 17.312 222.809 15.856C222.044 14.3813 221.661 12.636 221.661 10.62C221.661 8.716 222.072 7.02667 222.893 5.552C223.714 4.07733 224.853 2.92 226.309 2.08C227.784 1.24 229.473 0.819998 231.377 0.819998C232.926 0.819998 234.373 1.08133 235.717 1.604C237.08 2.108 238.218 2.95733 239.133 4.152L235.913 7.4C235.334 6.82133 234.709 6.34533 234.037 5.972C233.384 5.59867 232.618 5.412 231.741 5.412C230.677 5.412 229.772 5.65467 229.025 6.14C228.278 6.60667 227.709 7.24133 227.317 8.044C226.944 8.828 226.757 9.71467 226.757 10.704C226.757 12.2907 227.214 13.5693 228.129 14.54C229.044 15.492 230.257 15.968 231.769 15.968C232.385 15.968 232.973 15.8933 233.533 15.744C234.093 15.576 234.634 15.3147 235.157 14.96V13.168H231.909ZM0.112 45L6.972 26.324H12.656L19.264 45H13.916L12.712 41.136H6.468L5.236 45H0.112ZM7.476 37.524H11.704L9.632 30.664L7.476 37.524ZM20.7867 45V26.324H25.2947L32.4627 36.74V26.324H37.3627V45H33.1347L25.6867 34.276V45H20.7867ZM40.4403 45V26.324H47.6083C49.531 26.324 51.239 26.66 52.7323 27.332C54.2443 27.9853 55.439 29.012 56.3163 30.412C57.1936 31.7933 57.6323 33.576 57.6323 35.76C57.6323 37.8133 57.1936 39.5307 56.3163 40.912C55.439 42.2747 54.235 43.3013 52.7043 43.992C51.1923 44.664 49.4843 45 47.5803 45H40.4403ZM45.3963 40.632H47.4123C49.0176 40.632 50.2683 40.1747 51.1643 39.26C52.0603 38.3267 52.5083 37.1227 52.5083 35.648C52.5083 34.1547 52.0976 32.9507 51.2763 32.036C50.455 31.1213 49.167 30.664 47.4123 30.664H45.3963V40.632ZM63.1951 45L70.0551 26.324H75.7391L82.3471 45H76.9991L75.7951 41.136H69.5511L68.3191 45H63.1951ZM70.5591 37.524H74.7871L72.7151 30.664L70.5591 37.524ZM83.8698 45V26.324H91.0378C92.9605 26.324 94.6685 26.66 96.1618 27.332C97.6738 27.9853 98.8685 29.012 99.7458 30.412C100.623 31.7933 101.062 33.576 101.062 35.76C101.062 37.8133 100.623 39.5307 99.7458 40.912C98.8685 42.2747 97.6645 43.3013 96.1338 43.992C94.6218 44.664 92.9138 45 91.0098 45H83.8698ZM88.8258 40.632H90.8418C92.4472 40.632 93.6978 40.1747 94.5938 39.26C95.4898 38.3267 95.9378 37.1227 95.9378 35.648C95.9378 34.1547 95.5272 32.9507 94.7058 32.036C93.8845 31.1213 92.5965 30.664 90.8418 30.664H88.8258V40.632ZM107.501 45L100.725 26.324H106.129L110.329 39.316L114.249 26.324H119.541L112.737 45H107.501ZM121.044 45V26.324H126V45H121.044ZM143.049 38.392L146.381 41.528C144.29 44.16 141.518 45.476 138.065 45.476C136.161 45.476 134.471 45.056 132.997 44.216C131.541 43.376 130.402 42.228 129.581 40.772C128.759 39.2973 128.349 37.608 128.349 35.704C128.349 33.8 128.759 32.1107 129.581 30.636C130.402 29.1427 131.541 27.9667 132.997 27.108C134.453 26.2493 136.142 25.82 138.065 25.82C139.67 25.82 141.163 26.0907 142.545 26.632C143.945 27.1733 145.121 28.116 146.073 29.46L142.797 32.764C142.274 32.0547 141.649 31.4853 140.921 31.056C140.193 30.6267 139.362 30.412 138.429 30.412C137.383 30.412 136.487 30.6453 135.741 31.112C135.013 31.56 134.453 32.176 134.061 32.96C133.669 33.7253 133.473 34.5933 133.473 35.564C133.473 36.5533 133.669 37.4493 134.061 38.252C134.471 39.036 135.05 39.652 135.797 40.1C136.543 40.548 137.411 40.772 138.401 40.772C139.502 40.772 140.389 40.576 141.061 40.184C141.733 39.792 142.395 39.1947 143.049 38.392ZM147.91 45V26.324H161.35V30.608H152.866V33.492H159.838V37.524H152.866V40.716H161.938V45H147.91ZM163.976 49.004L165.712 45H163.948V39.904H169.184V45L166.86 49.004H163.976Z" fill="white"/>
</svg>

<?xml version="1.0" encoding="utf-8"?>
<!-- Generator: Adobe Illustrator 27.7.0, SVG Export Plug-In . SVG Version: 6.00 Build 0)  -->
<svg version="1.1" id="Layer_1" xmlns="http://www.w3.org/2000/svg" xmlns:xlink="http://www.w3.org/1999/xlink" x="0px" y="0px"
	 viewBox="0 0 240 49" style="enable-background:new 0 0 240 49;" xml:space="preserve">
<style type="text/css">
	.st0{fill:#FFFFFF;}
</style>
<path class="st0" d="M10.7,20.4c-1.4,0-2.7-0.2-3.9-0.7c-1.2-0.5-2.2-1.2-3.1-2c-0.9-0.9-1.5-1.9-2-3.1S1,12,1,10.6
	c0-1.4,0.2-2.7,0.7-3.9s1.2-2.2,2-3.1c0.9-0.9,1.9-1.6,3.1-2C8,1.1,9.3,0.8,10.7,0.8s2.7,0.2,3.9,0.7c1.2,0.5,2.2,1.2,3.1,2
	s1.5,1.9,2,3.1c0.5,1.2,0.7,2.5,0.7,3.9c0,1.4-0.2,2.7-0.7,3.9c-0.5,1.2-1.1,2.2-2,3.1c-0.9,0.9-1.9,1.6-3.1,2
	C13.4,20.2,12.1,20.4,10.7,20.4z M10.7,15.8c1,0,1.8-0.2,2.5-0.7c0.7-0.5,1.2-1.1,1.6-1.9s0.5-1.7,0.5-2.6S15.1,8.8,14.7,8
	s-0.9-1.4-1.6-1.9c-0.7-0.5-1.5-0.7-2.5-0.7c-1,0-1.8,0.2-2.5,0.7C7.5,6.6,7,7.2,6.6,8c-0.4,0.8-0.5,1.7-0.5,2.6s0.2,1.8,0.5,2.6
	C7,14,7.5,14.6,8.2,15.1C8.9,15.6,9.7,15.8,10.7,15.8z M22.7,20V1.3h4.5l7.2,10.4V1.3h4.9V20h-4.2L27.6,9.3V20H22.7z M42.4,20V1.3h5
	v14.3H56V20H42.4z M58,20V1.3h5V20H58z M66,20V1.3h4.5l7.2,10.4V1.3h4.9V20h-4.2L70.9,9.3V20H66z M85.6,20V1.3h13.4v4.3h-8.5v2.9h7
	v4h-7v3.2h9.1V20H85.6z M106.7,20V1.3h5v14.3h8.7V20H106.7z M122.3,20V1.3h13.4v4.3h-8.5v2.9h7v4h-7v3.2h9.1V20H122.3z M137.1,20
	l6.9-18.7h5.7l6.6,18.7h-5.3l-1.2-3.9h-6.2l-1.2,3.9H137.1z M144.4,12.5h4.2l-2.1-6.9L144.4,12.5z M157.7,20V1.3h7.7
	c2,0,3.6,0.5,4.8,1.6c1.2,1,1.8,2.5,1.8,4.6c0,1.2-0.3,2.3-0.8,3.2c-0.5,0.9-1.3,1.6-2.2,2.2l4,7.2h-5.3l-3.2-6.4h-2.1V20H157.7z
	 M162.6,9.8h2.4c0.7,0,1.2-0.2,1.6-0.6c0.4-0.4,0.6-1,0.6-1.6c0-0.7-0.2-1.3-0.6-1.7c-0.4-0.4-0.9-0.6-1.7-0.6h-2.4V9.8z M175,20
	V1.3h4.5l7.2,10.4V1.3h4.9V20h-4.2l-7.4-10.7V20H175z M194.7,20V1.3h5V20H194.7z M202.7,20V1.3h4.5l7.2,10.4V1.3h4.9V20h-4.2
	l-7.4-10.7V20H202.7z M231.9,13.2V9.3h7.7v8.4c-1.1,1-2.4,1.6-3.9,2.1c-1.5,0.4-2.9,0.6-4.3,0.6c-2,0-3.8-0.4-5.2-1.2
	c-1.5-0.8-2.6-1.9-3.4-3.4c-0.8-1.5-1.1-3.2-1.1-5.2c0-1.9,0.4-3.6,1.2-5.1s2-2.6,3.4-3.5c1.5-0.8,3.2-1.3,5.1-1.3
	c1.5,0,3,0.3,4.3,0.8c1.4,0.5,2.5,1.4,3.4,2.5l-3.2,3.2c-0.6-0.6-1.2-1.1-1.9-1.4c-0.7-0.4-1.4-0.6-2.3-0.6c-1.1,0-2,0.2-2.7,0.7
	c-0.7,0.5-1.3,1.1-1.7,1.9c-0.4,0.8-0.6,1.7-0.6,2.7c0,1.6,0.5,2.9,1.4,3.8c0.9,1,2.1,1.4,3.6,1.4c0.6,0,1.2-0.1,1.8-0.2
	c0.6-0.2,1.1-0.4,1.6-0.8v-1.8H231.9z M0.1,45L7,26.3h5.7L19.3,45h-5.3l-1.2-3.9H6.5L5.2,45H0.1z M7.5,37.5h4.2l-2.1-6.9L7.5,37.5z
	 M20.8,45V26.3h4.5l7.2,10.4V26.3h4.9V45h-4.2l-7.4-10.7V45H20.8z M40.4,45V26.3h7.2c1.9,0,3.6,0.3,5.1,1c1.5,0.7,2.7,1.7,3.6,3.1
	c0.9,1.4,1.3,3.2,1.3,5.3c0,2.1-0.4,3.8-1.3,5.2c-0.9,1.4-2.1,2.4-3.6,3.1c-1.5,0.7-3.2,1-5.1,1H40.4z M45.4,40.6h2
	c1.6,0,2.9-0.5,3.8-1.4c0.9-0.9,1.3-2.1,1.3-3.6c0-1.5-0.4-2.7-1.2-3.6c-0.8-0.9-2.1-1.4-3.9-1.4h-2V40.6z M63.2,45l6.9-18.7h5.7
	L82.3,45H77l-1.2-3.9h-6.2L68.3,45H63.2z M70.6,37.5h4.2l-2.1-6.9L70.6,37.5z M83.9,45V26.3H91c1.9,0,3.6,0.3,5.1,1
	c1.5,0.7,2.7,1.7,3.6,3.1c0.9,1.4,1.3,3.2,1.3,5.3c0,2.1-0.4,3.8-1.3,5.2c-0.9,1.4-2.1,2.4-3.6,3.1c-1.5,0.7-3.2,1-5.1,1H83.9z
	 M88.8,40.6h2c1.6,0,2.9-0.5,3.8-1.4c0.9-0.9,1.3-2.1,1.3-3.6c0-1.5-0.4-2.7-1.2-3.6c-0.8-0.9-2.1-1.4-3.9-1.4h-2V40.6z M107.5,45
	l-6.8-18.7h5.4l4.2,13l3.9-13h5.3L112.7,45H107.5z M121,45V26.3h5V45H121z M143,38.4l3.3,3.1c-2.1,2.6-4.9,3.9-8.3,3.9
	c-1.9,0-3.6-0.4-5.1-1.3c-1.5-0.8-2.6-2-3.4-3.4c-0.8-1.5-1.2-3.2-1.2-5.1c0-1.9,0.4-3.6,1.2-5.1c0.8-1.5,2-2.7,3.4-3.5
	c1.5-0.9,3.1-1.3,5.1-1.3c1.6,0,3.1,0.3,4.5,0.8c1.4,0.5,2.6,1.5,3.5,2.8l-3.3,3.3c-0.5-0.7-1.1-1.3-1.9-1.7
	c-0.7-0.4-1.6-0.6-2.5-0.6c-1,0-1.9,0.2-2.7,0.7c-0.7,0.4-1.3,1.1-1.7,1.8c-0.4,0.8-0.6,1.6-0.6,2.6c0,1,0.2,1.9,0.6,2.7
	c0.4,0.8,1,1.4,1.7,1.8c0.7,0.4,1.6,0.7,2.6,0.7c1.1,0,2-0.2,2.7-0.6C141.7,39.8,142.4,39.2,143,38.4z M147.9,45V26.3h13.4v4.3h-8.5
	v2.9h7v4h-7v3.2h9.1V45H147.9z"/>
</svg>
